public/img/sahar.svg

<svg width="431" height="512" fill="none" xmlns="http://www.w3.org/2000/svg"><path d="M159.075 343.075c29.285-29.285 29.285-76.765 0-106.05-29.285-29.285-76.765-29.285-106.05 0-29.285 29.285-29.285 76.765 0 106.05 29.285 29.285 76.765 29.285 106.05 0z" fill="#CB5935"/><path d="M112.195 320.798c19.937 0 36.099-16.162 36.099-36.099 0-19.937-16.162-36.099-36.099-36.099-19.937 0-36.1 16.162-36.1 36.099 0 19.937 16.163 36.099 36.1 36.099z" fill="#B0865A"/><path d="M249.371 416.258c-42.021 0-76.208 34.487-76.208 76.877V504.5h152.418v-11.365c-.001-42.39-34.188-76.877-76.21-76.877z" fill="#F2F6FF"/><path d="M249.371 416.258c-42.027 0-76.208 34.494-76.208 76.877V504.5h37.572v-36.554a30.16 30.16 0 014.711-16.154c10.942-17.242 28.51-29.809 49.06-34.006a75.602 75.602 0 00-15.135-1.528z" fill="#B9C7E5"/><path d="M386.547 320.798c19.936 0 36.099-16.162 36.099-36.099 0-19.937-16.163-36.099-36.099-36.099-19.937 0-36.099 16.162-36.099 36.099 0 19.937 16.162 36.099 36.099 36.099z" fill="#B0865A"/><path d="M290.556 424.037c60.347-17.591 104.443-73.311 104.443-139.337 0-80.153-64.976-145.129-145.129-145.129-80.15 0-145.127 64.976-145.127 145.129 0 66.026 44.097 121.746 104.442 139.337a145.172 145.172 0 0040.684 5.789 145.11 145.11 0 0040.687-5.789z" fill="#D5AB80"/><path d="M152.852 284.7c0-71.957 52.372-131.671 121.073-143.133a146.02 146.02 0 00-24.055-1.996c-80.15 0-145.127 64.976-145.127 145.129 0 80.15 64.977 145.126 145.127 145.126 8.196 0 16.229-.69 24.055-1.996-68.701-11.461-121.073-71.175-121.073-143.13z" fill="#B0865A"/><path d="M309.83 248.595a113.212 113.212 0 0085.169 36.104c0-80.644-65.481-145.128-145.129-145.128-80.15 0-145.127 64.976-145.127 145.129v.026c70.856 14.705 144.208 1.479 205.087-36.131z" fill="#DD6642"/><path d="M273.905 141.57a145.706 145.706 0 00-24.035-1.999c-80.15 0-145.127 64.976-145.127 145.129v.026a281.284 281.284 0 0048.228 5.716 147.92 147.92 0 01-.119-5.742c0-71.95 52.362-131.66 121.053-143.13z" fill="#CB5935"/><path d="M360.051 7.502H138.698c-16.569 0-30 13.432-30 30v211.1c89.459-38.985 191.426-39.186 281.353 0v-211.1c0-16.569-13.431-30-30-30z" fill="#F2F6FF"/><path d="M189.169 7.5h-50.478c-16.569 0-30 13.431-30 30v211.1a352.135 352.135 0 0154.175-18.525V71.001A89.804 89.804 0 01189.169 7.5z" fill="#B9C7E5"/><path d="M162.87 56.001c-8.284 0-15 6.716-15 15v113.281c0 8.284 6.716 15 15 15 8.284 0 15-6.716 15-15V71.001c0-8.284-6.716-15-15-15zM249.371 56.001c-8.284 0-15 6.716-15 15v113.281c0 8.284 6.716 15 15 15 8.284 0 15-6.716 15-15V71.001c0-8.284-6.716-15-15-15zM335.873 56.001c-8.284 0-15 6.716-15 15v113.281c0 8.284 6.716 15 15 15 8.284 0 15-6.716 15-15V71.001c0-8.284-6.716-15-15-15z" fill="#B9C7E5"/><path d="M199.869 338.602c-.031 9.896-10.13 17.886-22.556 17.847-12.426-.039-22.475-8.092-22.444-17.988.031-9.896 10.13-17.886 22.556-17.847 12.427.039 22.475 8.092 22.444 17.988zM298.87 338.894c-.031 9.896 10.017 17.949 22.444 17.988 12.426.039 22.525-7.951 22.556-17.847.031-9.896-10.017-17.949-22.444-17.988-12.427-.04-22.525 7.951-22.556 17.847z" fill="#FFC8AB"/><path d="M185.371 301a7.5 7.5 0 00-7.5 7.5v10a7.5 7.5 0 0015 0v-10a7.5 7.5 0 00-7.5-7.5zM313.371 301a7.5 7.5 0 00-7.5 7.5v10a7.5 7.5 0 0015 0v-10a7.5 7.5 0 00-7.5-7.5zM269.107 329.734a7.498 7.498 0 00-10.001 3.531c-1.667 3.484-5.291 5.735-9.235 5.735-3.944 0-7.568-2.251-9.234-5.735a7.5 7.5 0 10-13.532 6.47c4.144 8.666 13.08 14.265 22.766 14.265 9.686 0 18.623-5.599 22.766-14.265a7.5 7.5 0 00-3.53-10.001z" fill="#012477"/><path d="M430.146 284.699c0-20.231-13.61-37.314-32.598-42.195V37.5c0-20.678-16.822-37.5-37.5-37.5H138.695c-20.678 0-37.5 16.822-37.5 37.5v173.911c-42.271 3.521-75.6 39.025-75.6 82.19 0 23.021 9.76 45.178 26.775 60.788a7.5 7.5 0 0010.14-11.054c-13.927-12.776-21.915-30.904-21.915-49.734 0-34.89 26.608-63.683 60.599-67.15v16.053c-18.988 4.881-32.6 21.965-32.6 42.196 0 20.753 14.325 38.194 34.084 42.547a151.206 151.206 0 0014.12 33.276 67.151 67.151 0 01-31.331-3.324 7.5 7.5 0 00-5.043 14.127 82.25 82.25 0 0045.22 2.869c17.28 23.859 41.612 42.954 70.678 53.717-19.211 15.869-30.661 39.667-30.661 65.224V504.5a7.5 7.5 0 007.5 7.5h152.418a7.5 7.5 0 007.5-7.5v-11.364a84.796 84.796 0 00-3.438-23.959 7.502 7.502 0 00-14.391 4.234 69.847 69.847 0 012.828 19.725V497h-99.846v-29.054c0-4.286 1.226-8.482 3.544-12.135 4.384-6.908 10.37-12.866 18.76-18.675 2.933.168 5.877.262 8.833.264a152.57 152.57 0 0034.858-4.009 69.031 69.031 0 0118.565 16.175 7.5 7.5 0 1011.702-9.384 84.522 84.522 0 00-12.086-12.273c44.455-16.5 79.939-53.346 93.656-100.662 19.759-4.355 34.082-21.795 34.082-42.548zm-43.284-7.564c-14.016-.81-45.965-5.834-71.76-33.417a7.5 7.5 0 00-9.644-1.508c-58.127 35.91-126.661 48.726-193.65 36.347a138.1 138.1 0 013.292-24.513c85.549-36.18 182.975-36.181 268.526-.006a138.079 138.079 0 013.236 23.097zM116.195 37.5c0-12.407 10.093-22.5 22.5-22.5h221.353c12.406 0 22.5 10.093 22.5 22.5v199.849c-42.632-16.979-87.898-25.465-133.177-25.465-45.273 0-90.55 8.488-133.176 25.465V37.5zm92.918 410.273a37.6 37.6 0 00-5.879 20.172V497h-22.572v-3.864c0-24.622 12.903-47.259 33.853-59.754 1.809.423 3.624.817 5.447 1.173-4.266 4.115-7.832 8.465-10.849 13.218zm40.258-25.373h-.03c-64.89 0-121.56-46.03-134.77-109.45-1.41-6.778-10.563-8.19-13.92-2.06-10.143-4.433-17.055-14.512-17.055-26.19 0-10.946 6.072-20.486 15.184-25.29-2.331 13.974-2.11 25.29-2.11 25.29 0 3.527 2.507 6.646 6.029 7.353a290.302 290.302 0 0059.119 6.1c51.166 0 101.549-13.637 146.364-40.067 29.211 28.48 63.26 33.439 78.681 34.119-3.9 72.802-64.12 130.174-137.492 130.195zm150.617-112.426a153.993 153.993 0 002.083-25.275c0-.019-.003-.037-.003-.055a153.504 153.504 0 00-2.114-25.239c9.115 4.803 15.191 14.345 15.191 25.294.001 10.935-6.06 20.466-15.157 25.275z" fill="#012477"/><path d="M162.87 48.501a7.5 7.5 0 000 15c4.136 0 7.5 3.364 7.5 7.5v113.281a7.45 7.45 0 01-1.233 4.109 7.5 7.5 0 1012.529 8.249 22.419 22.419 0 003.705-12.358V71.001c-.001-12.407-10.094-22.5-22.501-22.5zM256.871 71.001v113.281a7.45 7.45 0 01-1.233 4.109 7.5 7.5 0 1012.529 8.249 22.419 22.419 0 003.705-12.358V71.001c0-12.407-10.093-22.5-22.5-22.5a7.5 7.5 0 000 15c4.135 0 7.499 3.364 7.499 7.5zM335.873 63.501c4.136 0 7.5 3.364 7.5 7.5v113.281a7.465 7.465 0 01-1.232 4.109 7.5 7.5 0 1012.528 8.249 22.41 22.41 0 003.705-12.358V71.001c0-12.407-10.094-22.5-22.5-22.5a7.5 7.5 0 00-7.5 7.5 7.5 7.5 0 007.499 7.5zM249.371 479.945a7.5 7.5 0 100-15 7.5 7.5 0 000 15z" fill="#012477"/></svg>

<svg width="431" height="512" viewBox="0 0 431 512" fill="none" xmlns="http://www.w3.org/2000/svg">
<path d="M159.075 343.075C188.36 313.79 188.36 266.31 159.075 237.025C129.79 207.74 82.3099 207.74 53.025 237.025C23.7401 266.31 23.7401 313.79 53.025 343.075C82.3099 372.36 129.79 372.36 159.075 343.075Z" fill="#CB5935"/>
<path d="M112.195 320.798C132.132 320.798 148.294 304.636 148.294 284.699C148.294 264.762 132.132 248.6 112.195 248.6C92.2578 248.6 76.0957 264.762 76.0957 284.699C76.0957 304.636 92.2578 320.798 112.195 320.798Z" fill="#B0865A"/>
<path d="M249.371 416.258C207.35 416.258 173.163 450.745 173.163 493.135V504.5H325.581V493.135C325.58 450.745 291.393 416.258 249.371 416.258V416.258Z" fill="#F2F6FF"/>
<path d="M249.371 416.258C207.344 416.258 173.163 450.752 173.163 493.135V504.5H210.735V467.946C210.735 462.223 212.38 456.624 215.446 451.792C226.388 434.55 243.956 421.983 264.506 417.786C259.612 416.787 254.552 416.258 249.371 416.258V416.258Z" fill="#B9C7E5"/>
<path d="M386.547 320.798C406.483 320.798 422.646 304.636 422.646 284.699C422.646 264.762 406.483 248.6 386.547 248.6C366.61 248.6 350.448 264.762 350.448 284.699C350.448 304.636 366.61 320.798 386.547 320.798Z" fill="#B0865A"/>
<path d="M290.556 424.037C350.903 406.446 394.999 350.726 394.999 284.7C394.999 204.547 330.023 139.571 249.87 139.571C169.72 139.571 104.743 204.547 104.743 284.7C104.743 350.726 148.84 406.446 209.185 424.037C222.095 427.8 235.745 429.826 249.869 429.826C263.995 429.827 277.646 427.801 290.556 424.037Z" fill="#D5AB80"/>
<path d="M152.852 284.7C152.852 212.743 205.224 153.029 273.925 141.567C266.1 140.261 258.066 139.571 249.87 139.571C169.72 139.571 104.743 204.547 104.743 284.7C104.743 364.85 169.72 429.826 249.87 429.826C258.066 429.826 266.099 429.136 273.925 427.83C205.224 416.369 152.852 356.655 152.852 284.7V284.7Z" fill="#B0865A"/>
<path d="M309.83 248.595C331.784 272.207 362.764 285.343 394.999 284.699C394.999 204.055 329.518 139.571 249.87 139.571C169.72 139.571 104.743 204.547 104.743 284.7V284.726C175.599 299.431 248.951 286.205 309.83 248.595V248.595Z" fill="#DD6642"/>
<path d="M273.905 141.57C266.079 140.262 258.051 139.571 249.87 139.571C169.72 139.571 104.743 204.547 104.743 284.7V284.726C120.749 288.048 136.882 289.93 152.971 290.442C152.897 288.536 152.852 286.623 152.852 284.7C152.852 212.75 205.214 153.04 273.905 141.57Z" fill="#CB5935"/>
<path d="M360.051 7.50195C357.834 7.50195 140.923 7.50195 138.698 7.50195C122.129 7.50195 108.698 20.934 108.698 37.502V248.602C198.157 209.617 300.124 209.416 390.051 248.602V37.502C390.051 20.933 376.62 7.50195 360.051 7.50195V7.50195Z" fill="#F2F6FF"/>
<path d="M189.169 7.5H138.691C122.122 7.5 108.691 20.931 108.691 37.5V248.6C126.338 240.91 144.459 234.74 162.866 230.075V71.001C162.866 47.183 172.328 24.341 189.169 7.5V7.5Z" fill="#B9C7E5"/>
<path d="M162.87 56.001C154.586 56.001 147.87 62.717 147.87 71.001V184.282C147.87 192.566 154.586 199.282 162.87 199.282C171.154 199.282 177.87 192.566 177.87 184.282V71.001C177.87 62.717 171.154 56.001 162.87 56.001V56.001Z" fill="#B9C7E5"/>
<path d="M249.371 56.001C241.087 56.001 234.371 62.717 234.371 71.001V184.282C234.371 192.566 241.087 199.282 249.371 199.282C257.655 199.282 264.371 192.566 264.371 184.282V71.001C264.371 62.717 257.655 56.001 249.371 56.001V56.001Z" fill="#B9C7E5"/>
<path d="M335.873 56.001C327.589 56.001 320.873 62.717 320.873 71.001V184.282C320.873 192.566 327.589 199.282 335.873 199.282C344.157 199.282 350.873 192.566 350.873 184.282V71.001C350.873 62.717 344.157 56.001 335.873 56.001V56.001Z" fill="#B9C7E5"/>
<path d="M199.869 338.602C199.838 348.498 189.739 356.488 177.313 356.449C164.887 356.41 154.838 348.357 154.869 338.461C154.9 328.565 164.999 320.575 177.425 320.614C189.852 320.653 199.9 328.706 199.869 338.602Z" fill="#FFC8AB"/>
<path d="M298.87 338.894C298.839 348.79 308.887 356.843 321.314 356.882C333.74 356.921 343.839 348.931 343.87 339.035C343.901 329.139 333.853 321.086 321.426 321.047C308.999 321.007 298.901 328.998 298.87 338.894Z" fill="#FFC8AB"/>
<path d="M185.371 301C181.229 301 177.871 304.358 177.871 308.5V318.5C177.871 322.642 181.229 326 185.371 326C189.513 326 192.871 322.642 192.871 318.5V308.5C192.871 304.358 189.513 301 185.371 301Z" fill="#012477"/>
<path d="M313.371 301C309.229 301 305.871 304.358 305.871 308.5V318.5C305.871 322.642 309.229 326 313.371 326C317.513 326 320.871 322.642 320.871 318.5V308.5C320.871 304.358 317.513 301 313.371 301Z" fill="#012477"/>
<path d="M269.107 329.734C265.369 327.946 260.892 329.528 259.106 333.265C257.439 336.749 253.815 339 249.871 339C245.927 339 242.303 336.749 240.637 333.265C238.851 329.528 234.372 327.947 230.636 329.734C226.899 331.521 225.318 335.999 227.105 339.735C231.249 348.401 240.185 354 249.871 354C259.557 354 268.494 348.401 272.637 339.735C274.424 335.999 272.843 331.521 269.107 329.734V329.734Z" fill="#012477"/>
<path d="M430.146 284.699C430.146 264.468 416.536 247.385 397.548 242.504V37.5C397.548 16.822 380.726 0 360.048 0H138.695C118.017 0 101.195 16.822 101.195 37.5V211.411C58.9237 214.932 25.5957 250.436 25.5957 293.601C25.5957 316.622 35.3547 338.779 52.3697 354.389C55.4257 357.191 60.1687 356.982 62.9667 353.932C65.7667 350.88 65.5627 346.135 62.5097 343.335C48.5827 330.559 40.5947 312.431 40.5947 293.601C40.5947 258.711 67.2027 229.918 101.194 226.451V242.504C82.2057 247.385 68.5947 264.469 68.5947 284.7C68.5947 305.453 82.9187 322.894 102.678 327.247C106.034 338.856 110.762 349.999 116.798 360.523C106.141 361.92 95.4227 360.753 85.4667 357.199C81.5657 355.807 77.2747 357.84 75.8817 361.741C74.4887 365.642 76.5227 369.933 80.4237 371.326C94.7747 376.448 110.432 377.52 125.644 374.195C142.924 398.054 167.256 417.149 196.322 427.912C177.111 443.781 165.661 467.579 165.661 493.136V504.5C165.661 508.642 169.019 512 173.161 512H325.579C329.722 512 333.079 508.642 333.079 504.5V493.136C333.079 484.99 331.923 476.929 329.641 469.177C328.471 465.204 324.303 462.93 320.328 464.099C316.354 465.268 314.081 469.437 315.25 473.411C317.126 479.787 318.078 486.424 318.078 493.136V497H218.232V467.946C218.232 463.66 219.458 459.464 221.776 455.811C226.16 448.903 232.146 442.945 240.536 437.136C243.469 437.304 246.413 437.398 249.369 437.4C261.221 437.4 272.875 436.05 284.227 433.391C291.324 437.624 297.565 443.048 302.792 449.566C305.384 452.797 310.103 453.317 313.335 450.725C316.566 448.134 317.085 443.413 314.494 440.182C310.859 435.649 306.815 431.554 302.408 427.909C346.863 411.409 382.347 374.563 396.064 327.247C415.823 322.892 430.146 305.452 430.146 284.699ZM386.862 277.135C372.846 276.325 340.897 271.301 315.102 243.718C312.698 240.906 308.603 240.266 305.458 242.21C247.331 278.12 178.797 290.936 111.808 278.557C112.173 270.278 113.277 262.064 115.1 254.044C200.649 217.864 298.075 217.863 383.626 254.038C385.352 261.623 386.437 269.355 386.862 277.135ZM116.195 37.5C116.195 25.093 126.288 15 138.695 15H360.048C372.454 15 382.548 25.093 382.548 37.5V237.349C339.916 220.37 294.65 211.884 249.371 211.884C204.098 211.884 158.821 220.372 116.195 237.349V37.5ZM209.113 447.773C205.267 453.834 203.234 460.809 203.234 467.945V497H180.662V493.136C180.662 468.514 193.565 445.877 214.515 433.382C216.324 433.805 218.139 434.199 219.962 434.555C215.696 438.67 212.13 443.02 209.113 447.773ZM249.371 422.4H249.341C184.451 422.4 127.781 376.37 114.571 312.95C113.161 306.172 104.008 304.76 100.651 310.89C90.5077 306.457 83.5957 296.378 83.5957 284.7C83.5957 273.754 89.6677 264.214 98.7797 259.41C96.4487 273.384 96.6707 284.7 96.6707 284.7C96.6707 288.227 99.1767 291.346 102.699 292.053C122.341 296.136 142.137 298.154 161.818 298.153C212.984 298.153 263.367 284.516 308.182 258.086C337.393 286.566 371.442 291.525 386.863 292.205C382.963 365.007 322.743 422.379 249.371 422.4ZM399.988 309.974C401.366 301.684 402.071 293.247 402.071 284.699C402.071 284.68 402.068 284.662 402.068 284.644C402.065 276.18 401.346 267.735 399.954 259.405C409.069 264.208 415.145 273.75 415.145 284.699C415.146 295.634 409.085 305.165 399.988 309.974Z" fill="#012477"/>
<path d="M162.87 48.501C158.728 48.501 155.37 51.859 155.37 56.001C155.37 60.143 158.728 63.501 162.87 63.501C167.006 63.501 170.37 66.865 170.37 71.001V184.282C170.37 185.745 169.944 187.166 169.137 188.391C166.859 191.851 167.817 196.502 171.277 198.78C174.743 201.061 179.39 200.095 181.666 196.64C184.089 192.959 185.371 188.685 185.371 184.282V71.001C185.37 58.594 175.277 48.501 162.87 48.501V48.501Z" fill="#012477"/>
<path d="M256.871 71.001V184.282C256.871 185.745 256.445 187.166 255.638 188.391C253.36 191.851 254.318 196.502 257.778 198.78C261.244 201.061 265.891 200.095 268.167 196.64C270.59 192.959 271.872 188.685 271.872 184.282V71.001C271.872 58.594 261.779 48.501 249.372 48.501C245.23 48.501 241.872 51.859 241.872 56.001C241.872 60.143 245.23 63.501 249.372 63.501C253.507 63.501 256.871 66.865 256.871 71.001V71.001Z" fill="#012477"/>
<path d="M335.873 63.501C340.009 63.501 343.373 66.865 343.373 71.001V184.282C343.373 185.745 342.946 187.166 342.141 188.391C339.863 191.851 340.821 196.502 344.281 198.78C347.745 201.06 352.394 200.096 354.669 196.64C357.093 192.959 358.374 188.685 358.374 184.282V71.001C358.374 58.594 348.28 48.501 335.874 48.501C331.731 48.501 328.374 51.859 328.374 56.001C328.374 60.143 331.731 63.501 335.873 63.501V63.501Z" fill="#012477"/>
<path d="M249.371 479.945C253.513 479.945 256.871 476.587 256.871 472.445C256.871 468.303 253.513 464.945 249.371 464.945C245.228 464.945 241.871 468.303 241.871 472.445C241.871 476.587 245.228 479.945 249.371 479.945Z" fill="#012477"/>
</svg>
